creators/img/call-footer.svg

<svg width="14" height="14" viewBox="0 0 14 14" fill="none" xmlns="http://www.w3.org/2000/svg">
<g clip-path="url(#clip0_4286_31238)">
<path d="M12.8766 9.1894C12.0195 9.1894 11.1779 9.05534 10.3804 8.79178C9.98958 8.65849 9.50917 8.78077 9.27066 9.02573L7.6965 10.2141C5.87092 9.23956 4.7464 8.11541 3.78521 6.30354L4.93857 4.77039C5.23822 4.47114 5.3457 4.03401 5.21693 3.62385C4.95224 2.82213 4.81779 1.98093 4.81779 1.12343C4.81782 0.503964 4.31386 0 3.69443 0H1.12339C0.503964 0 0 0.503964 0 1.12339C0 8.22365 5.77638 14 12.8766 14C13.4961 14 14 13.496 14 12.8766V10.3127C14 9.69336 13.496 9.1894 12.8766 9.1894Z" fill="#888888"/>
</g>
<defs>
<clipPath id="clip0_4286_31238">
<rect width="14" height="14" fill="white"/>
</clipPath>
</defs>
</svg>

<svg width="14" height="14" fill="none" xmlns="http://www.w3.org/2000/svg"><g clip-path="url(#clip0_4286_31238)"><path d="M12.877 9.19a7.948 7.948 0 01-2.497-.398c-.39-.134-.87-.011-1.11.234l-1.573 1.188c-1.826-.974-2.95-2.099-3.912-3.91L4.94 4.77c.3-.299.407-.736.278-1.146a7.96 7.96 0 01-.4-2.5C4.818.503 4.315 0 3.695 0h-2.57C.503 0 0 .504 0 1.123 0 8.223 5.776 14 12.877 14c.62 0 1.123-.504 1.123-1.123v-2.564c0-.62-.504-1.124-1.123-1.124z" fill="#888"/></g><defs><clipPath id="clip0_4286_31238"><path fill="#fff" d="M0 0h14v14H0z"/></clipPath></defs></svg>
